icons/glyphs/glyph-printer.svg

<?xml version="1.0" encoding="UTF-8" standalone="no"?><svg height="22" viewBox="0 0 5.8208332 5.8208335" width="22" xmlns="http://www.w3.org/2000/svg"><sodipodi:namedview/><metadata><rdf:RDF><cc:Work><dc:format>image/svg+xml</dc:format><dc:type/><dc:title/></cc:Work></rdf:RDF></metadata><path d="m2.75 0v5.6386719h16.5v-5.6386719zm-1.390625 7.03125c-.75295786 0-1.359375.6044633-1.359375 1.3574219v7.5820311c0 .752958.60641714 1.359375 1.359375 1.359375h19.28125c.752957 0 1.359375-.606417 1.359375-1.359375v-7.5820311c0-.7529586-.606418-1.3574219-1.359375-1.3574219zm18.212891 7.208984c.4348-.000222.787332.352308.787109.78711-.000856.434037-.353072.785379-.787109.785156-.434039.000223-.786254-.351118-.78711-.785156-.000222-.434801.352309-.787332.78711-.78711zm-15.5761722 4.38086v3.378906h14.0078122v-3.378906z" fill="#d0d0d0" stroke-width="10.899999" transform="scale(.26458333)"/></svg>

<?xml version="1.0" encoding="UTF-8" standalone="no"?>
<!-- Created with Inkscape (http://www.inkscape.org/) -->

<svg
   xmlns:dc="http://purl.org/dc/elements/1.1/"
   xmlns:cc="http://creativecommons.org/ns#"
   xmlns:rdf="http://www.w3.org/1999/02/22-rdf-syntax-ns#"
   xmlns:svg="http://www.w3.org/2000/svg"
   xmlns="http://www.w3.org/2000/svg"
   xmlns:sodipodi="http://sodipodi.sourceforge.net/DTD/sodipodi-0.dtd"
   xmlns:inkscape="http://www.inkscape.org/namespaces/inkscape"
   width="22"
   height="22"
   viewBox="0 0 5.8208332 5.8208335"
   version="1.1"
   id="svg8"
   inkscape:version="0.92+devel (0526f3edb8, 2017-07-23, custom)"
   sodipodi:docname="glyph-printer.svg">
  <defs
     id="defs2" />
  <sodipodi:namedview
     id="base"
     pagecolor="#002466"
     bordercolor="#ffffff"
     borderopacity="0.37647059"
     inkscape:pageopacity="1"
     inkscape:pageshadow="2"
     inkscape:zoom="26.323658"
     inkscape:cx="9.5971337"
     inkscape:cy="10.705813"
     inkscape:document-units="px"
     inkscape:current-layer="svg8"
     inkscape:document-rotation="0"
     showgrid="false"
     inkscape:showpageshadow="false"
     borderlayer="true"
     units="px"
     inkscape:window-width="1920"
     inkscape:window-height="1051"
     inkscape:window-x="0"
     inkscape:window-y="0"
     inkscape:window-maximized="1"
     inkscape:snap-page="true"
     inkscape:object-paths="true"
     inkscape:snap-intersection-paths="true"
     inkscape:snap-smooth-nodes="true"
     inkscape:snap-bbox="true"
     inkscape:bbox-paths="true"
     inkscape:bbox-nodes="true"
     inkscape:snap-bbox-edge-midpoints="true" />
  <metadata
     id="metadata5">
    <rdf:RDF>
      <cc:Work
         rdf:about="">
        <dc:format>image/svg+xml</dc:format>
        <dc:type
           rdf:resource="http://purl.org/dc/dcmitype/StillImage" />
        <dc:title />
      </cc:Work>
    </rdf:RDF>
  </metadata>
  <path
     style="opacity:1;fill:#d0d0d0;stroke-width:10.89999866"
     d="m 2.75,0 v 5.6386719 h 16.5 V 0 Z M 1.359375,7.03125 C 0.60641714,7.03125 0,7.6357133 0,8.3886719 v 7.5820311 c 0,0.752958 0.60641714,1.359375 1.359375,1.359375 h 19.28125 C 21.393582,17.330078 22,16.723661 22,15.970703 V 8.3886719 C 22,7.6357133 21.393582,7.03125 20.640625,7.03125 Z m 18.212891,7.208984 c 0.4348,-2.22e-4 0.787332,0.352308 0.787109,0.78711 -8.56e-4,0.434037 -0.353072,0.785379 -0.787109,0.785156 -0.434039,2.23e-4 -0.786254,-0.351118 -0.78711,-0.785156 -2.22e-4,-0.434801 0.352309,-0.787332 0.78711,-0.78711 z M 3.9960938,18.621094 V 22 H 18.003906 v -3.378906 z"
     transform="scale(0.26458333)"
     id="rect4916"
     inkscape:connector-curvature="0"
     inkscape:label="#" />
</svg>
